Obsidian-SemiLight/actions/16s/view-calendar-tasks.svg

<svg viewBox="0 0 16 16" xmlns="http://www.w3.org/2000/svg"><path d="m3 2v1 1h-1v1h1v6h-1v1h1v1 1h2 2 7v-1-6-5h-1zm2 1h8v4 6h-6-2zm1 1v2h2v-2zm3 0v1h3v-1zm-3 4v2h2v-2zm3 0v1h3v-1zm1 3v1h2v-1z" fill="#4d4d4d"/></svg>

<svg xmlns="http://www.w3.org/2000/svg" viewBox="0 0 16 16">
  <defs id="defs3051">
    <style type="text/css" id="current-color-scheme">
      .ColorScheme-Text {
        color:#4d4d4d;
      }
      </style>
  </defs>
 <path style="fill:currentColor;fill-opacity:1;stroke:none" 
       d="M 3 2 L 3 3 L 3 4 L 2 4 L 2 5 L 3 5 L 3 11 L 2 11 L 2 12 L 3 12 L 3 13 L 3 14 L 5 14 L 7 14 L 14 14 L 14 13 L 14 7 L 14 2 L 13 2 L 3 2 z M 5 3 L 13 3 L 13 7 L 13 13 L 7 13 L 5 13 L 5 3 z M 6 4 L 6 6 L 8 6 L 8 4 L 6 4 z M 9 4 L 9 5 L 12 5 L 12 4 L 9 4 z M 6 8 L 6 10 L 8 10 L 8 8 L 6 8 z M 9 8 L 9 9 L 12 9 L 12 8 L 9 8 z M 10 11 L 10 12 L 12 12 L 12 11 L 10 11 z "
     class="ColorScheme-Text"
     />
</svg>
